X:1
T:Liszt and Brahms
M:4/4
L:1/4
K:Eb
 C/2 C3/2 E F| G/2 G3/2 F G| E/2 C3/2 C2| G/2 G3/2 B c| d/2 d3/2 c d|\
 B/2 G3/2 G2| e3/2 e/2d/2 c3/2| B3/2 G/2=A/2 B3/2| G/2 F3/2 E2| B3/2 B/2 G =A|\
B/2-G/2 F/2E/2 D/2 B,3/2| C/2 D3/2 C2|
